img/pointer-map.svg

<svg width="92" height="112" viewBox="0 0 92 112" fill="none" xmlns="http://www.w3.org/2000/svg">
  <g opacity="0.6">
    <g filter="url(#filter0_f)">
      <path d="M82 101.631L59.3209 97.8926H33.4019L82 101.631Z" fill="#333333" />
    </g>
    <g opacity="0.4" filter="url(#filter1_f)">
      <path
        d="M10.2241 97.1448C10.2241 99.2094 25.7896 100.883 44.9905 100.883C64.1914 100.883 79.7568 99.2094 79.7568 97.1448C79.7568 95.0802 64.1914 93.4065 44.9905 93.4065C25.7896 93.4065 10.2241 95.0802 10.2241 97.1448Z"
        fill="#333333" />
    </g>
  </g>
  <path d="M82.2524 98.4999L63.9347 69.7148H43.0001L82.2524 98.4999Z" fill="#4299FF" />
  <circle r="39.2523" transform="matrix(-1 0 0 1 42.2525 39.4345)" fill="#4299FF" />
  <path
    d="M38.5787 42.7043L36.8794 38.1047L35.1705 42.7043H38.5787ZM39.5747 45.302H34.1744L32.9732 48.6028H29.7701L35.2779 34.5989H38.4712L43.979 48.6028H40.7759L39.5747 45.302ZM49.688 34.5989V48.6028H46.983V34.5989H49.688Z"
    fill="white" />
  <defs>
    <filter id="filter0_f" x="23.4019" y="87.8926" width="68.5981" height="23.7383" filterUnits="userSpaceOnUse"
      color-interpolation-filters="sRGB">
      <feFlood flood-opacity="0" result="BackgroundImageFix" />
      <feBlend mode="normal" in="SourceGraphic" in2="BackgroundImageFix" result="shape" />
      <feGaussianBlur stdDeviation="5" result="effect1_foregroundBlur" />
    </filter>
    <filter id="filter1_f" x="0.224121" y="83.4065" width="89.5327" height="27.4766" filterUnits="userSpaceOnUse"
      color-interpolation-filters="sRGB">
      <feFlood flood-opacity="0" result="BackgroundImageFix" />
      <feBlend mode="normal" in="SourceGraphic" in2="BackgroundImageFix" result="shape" />
      <feGaussianBlur stdDeviation="5" result="effect1_foregroundBlur" />
    </filter>
  </defs>
</svg>

<svg width="92" height="112" viewBox="0 0 92 112" fill="none" xmlns="http://www.w3.org/2000/svg"><g opacity=".6"><g filter="url(#filter0_f)"><path d="M82 101.631l-22.68-3.738H33.403L82 101.63z" fill="#333"/></g><g opacity=".4" filter="url(#filter1_f)"><path d="M10.224 97.145c0 2.064 15.566 3.738 34.766 3.738 19.201 0 34.767-1.674 34.767-3.738 0-2.065-15.566-3.739-34.767-3.739-19.2 0-34.766 1.674-34.766 3.739z" fill="#333"/></g></g><path d="M82.252 98.5L63.935 69.715H43L82.252 98.5z" fill="#4299FF"/><circle r="39.252" transform="matrix(-1 0 0 1 42.252 39.434)" fill="#4299FF"/><path d="M38.579 42.704l-1.7-4.6-1.709 4.6h3.409zm.996 2.598h-5.4l-1.202 3.3H29.77L35.278 34.6h3.193l5.508 14.004h-3.203l-1.201-3.301zm10.113-10.703v14.004h-2.705V34.599h2.705z" fill="#fff"/><defs><filter id="filter0_f" x="23.402" y="87.893" width="68.598" height="23.738" filterUnits="userSpaceOnUse" color-interpolation-filters="sRGB"><feFlood flood-opacity="0" result="BackgroundImageFix"/><feBlend in="SourceGraphic" in2="BackgroundImageFix" result="shape"/><feGaussianBlur stdDeviation="5" result="effect1_foregroundBlur"/></filter><filter id="filter1_f" x=".224" y="83.406" width="89.533" height="27.477" filterUnits="userSpaceOnUse" color-interpolation-filters="sRGB"><feFlood flood-opacity="0" result="BackgroundImageFix"/><feBlend in="SourceGraphic" in2="BackgroundImageFix" result="shape"/><feGaussianBlur stdDeviation="5" result="effect1_foregroundBlur"/></filter></defs></svg>
